X: 28
T: Kesh, The
Z: Will The Whistler
S: https://thesession.org/tunes/55#setting50414
R: jig
M: 6/8
L: 1/8
K: Gmaj
|:G2 {A}G {F}GAB|A2 {c}A {G}ABd|edd gdd|edB dBA|
GAG {F}GAB|A2 {c}A {G}ABd|edd gdB|AFD G3:|
|:BGB dBd|e/f/ge dBA|BGB dBG|{B}AGA {c}AGA|
BGB dBd|e/f/ge dBd|g2g {b}aga|bgf {a}g3:|

